!!!SOCIAL_FUNCTION:	songs of war
!!!PDT:	1913
!!!OTL: No_43_I_Am_Called.krn
!!!REG: Great_Lakes
!!!LANG: Non-Tone
!!!LING_GROUP: Algonquin
**kern	**kern
*staff2	*staff1
=1-	=1-
*clefF4	*clefG2
*k[f#]	*k[f#]
*M3/4	*M3/4
8GG/L	8e/L
8GG/J	8e/J
8GG/L	8e/L
8GG/J	8e/J
8GG/L	8.f#/L
8GG/J	.
.	16g/Jk
=2	=2
2.r	[2e/
.	8e/L]
.	8B/J
=3	=3
2.r	8e/L
.	8e/J
.	8e/L
.	8d/J
.	16e/LK
.	8.d/J
=4||	=4||
*M2/4	*M2/4
2r	8.B/L
.	16B/Jk
.	[4B/
=5	=5
2r	2B/]
*	*clefF4
=6	=6
2r	8B\L
.	8B\J
.	8B\L
.	8B\J
=7	=7
2r	8B\L
.	8B\J
.	8c#\L
.	8d\J
=8||	=8||
*M3/4	*M3/4
2.r	[2B\
.	8B\L]
.	8G\J
=9||	=9||
*M2/4	*M2/4
2r	8A\L
.	8A\J
.	8A\L
.	8G\J
=10	=10
2r	8A\L
.	8G\J
.	4E\
=11	=11
2r	[2E\
=12	=12
2r	4E\]
.	4BB/
=13||	=13||
*M3/4	*M3/4
2.r	8E\L
.	8E\J
.	8.E\L
.	16E\Jk
.	4E\
=14||	=14||
*M2/4	*M2/4
2r	4.E\
.	8BB/
=15	=15
2r	8E\L
.	8E\J
.	8E\L
.	8D\J
=16	=16
2r	12E\L
.	12E\
.	12D\J
.	4BB/
=17	=17
2r	2BB/
==	==
*-	*-
